X:180
T:Golden Slippers
C:Trad - Arr. Dix Bruce
N:From the Mandozine website Transcribed by Mike Stangeland
R:bluegrass
L:1/8
Q:1/4=236
M:4/4
K:A
z6 AB |: "A"c=c ^ce cB AB | c=c ^ce cB AB | c2 cc d2 cd | "E"c2 B2 B2 GA | B^A Bc B=A GA | 
B^A Bc B=A GA | B2 BB c2 Bc |1 B2 A2 A2 AB :|2 B2 A2 A4 |: "A"E6 A2 | c2 (3BcB A2 =G2 | 
"D"F6 A2 | d2 (3cdc B2 A2 | "E"G3F G2 A2 |1 B4 B2 G2 | "A"A3G A2 B2 | c2 A2 F2 =F2 :|2 B4 d4 | 
c3d cB z2 | A8 | 


